X: 83
T: Mother's Song for a Dead Baby
N: Derived from pawnee83.krn
O: Oklahoma, U.S.A.
N: from Pawnee Music by Frances Densmore, 1926
Z: transcribed to **kern format by David Huron, August 2000
C: Skidi and Chaui Bands, 1919
L: 1/8
M: 3/4
Q: 1/4=88
K: D clef=treble
%%linebreak <none>
A [I:setbarnb 1]| 
A> BA3A ]|:  
E> FD3A, [I:setbarnb 3]| 
A,> DD3F[M:2/4] | 
E> D E/ E/ D/ B,/[M:3/4] | 
A,4A,2[M:2/4] | 
A,3E[M:2/4] | 
A,4 |]  



